X:1
T:Bluesette
T:Bluesette
T:Toots Thielemans
C:Jean Thielemans
Z:All Rights Reserved
L:1/4
M:3/4
K:G
V:1 treble 
V:1
|:"Gmaj7" D E F | G A B |"F#m7b5" c2 E |"B7b9" ^D3 |"Em7" B2 D |"A7" ^C3 |"Dm7" A2 C |"G7" B,3 | %8
w: Poor lit- tle,|sad lit- tle|blue Blues-|sette,|Don't you|cry,|don't you|fret.|
w: Long as there's|love in your|heart to|share,|dear Blues-|sette,|don't dis-|pair.|
"Cmaj7" G2 B, | C3/2 D/ _E/=F/ |"Cm7" G2 _e |"F7" d2 c |"Bbmaj7" =F2 d | c2 _B |"Bbm7" =F2 _d | %15
w: You can|bet one luck- y|day you'll|wa- ken|and your|blues will|be fore-|
w: Some blue|boy is long- ing|just like|you to|find a|some- one|to be|
"Eb7" c2 _B |"Abmaj7" _E =F G | _A _B c |"Am7" d2 c |"D7" B2 A |"Bm7" D3- |"Bb7" D3- |"Am7" D3- | %23
w: sa- ken.|One luck- y|day luck- y|love will|come your|way|||
w: true to.|Two lov- ing|arms he can|nest- le|in sand|stay.|||
"D7" D3 :|"G" G A B | d z z |"F#m7b5" c B A |"B7" G2 F |"Em7" E F G |"A7" B3 |"Dm7" A G =F | %31
w: |Get set Blues-|sette,|true love is|com- ing.|Your trou- bled|heart|soon will be|
w: ||||||||
"G7" E2 D |"Cmaj7" G2 B, |"C6" C3/2 B,/ C/D/ |"Cm7" E3/2 =F/ G/_B/ |"F7" A _B c |"Bbmaj7" =F2 A, | %37
w: hum- ming.|Hum hum|hum hum hum hum|hum hum hum hum|hum hum hum|hum hum|
w: ||||||
"Bb6" B,3/2 C/ _D/_E/ |"Bbm7" =F2 _d |"Eb9" c2 _B |"Ab" _E/_E/ =F/=F/ G/G/ | _A/_A/ _B/_B/ c/c/ | %42
w: hum hum hum hum|hum hum|hum hum|doo- ya, doo- ya, doo- ya|doo- ya doo- ya doo- ya|
w: |||||
"Am7b5" d2 (3c/d/c/ |"D9" B2 A |"Bm7" D3- |"Bb7" D3- |"Am7" D3 |"D7" z3 | z"G" d/d/ d/d/ | c B2 | %50
w: doo- oo oo oo|oo Blues-|sette.||||Pret- ty lit- tle|Blues- sette,|
w: ||||||||
"F#m7b5" z c/c/ c/c/ |"B7" B A2 | z"Em7" B/B/ B/B/ |"A7" A G2 |"Dm7" z A/A/ A/A/ |"G7" G F2 | %56
w: Must- n't be a|mour- ner.|Have you heard the|news yet?|Love is 'round the|cor- ner.|
w: ||||||
"Cmaj7" E =F ^F |"C6" G A B |"Cm7" c ^c d |"F7" _e d =c |"Bb" =F G A |"Bb6" _B =B c | %62
w: Love wrapped in|rain- bows and|tied with pink|rib- bon to|make your next|spring time hour|
w: ||||||
"Bbm7" ^c =d ^d |"Eb9" e _e _d |"Ab" c z/ _B3/2 | _A z/ _B c/ |"Am7b5" d z/ c B/ |"D7" _A z F/E/ | %68
w: gold wed- ding|ring time So|dry your|eyes dont- cha|pout, don't- cha|fret good- y|
w: ||||||
"Bm7" D D D |"Bb7" =F D3/2 C/ |"Am7" D3- |"D7" D2 z |"Gmaj7" D E F | G A B |"F#m7b5" c2 E | %75
w: good times re|com- ing Blues-|sette.||Long as there's|love in your|heart to|
w: |||||||
"B7b9" ^D3 |"Em7" B2 =D |"A7" ^C3 |"Dm7" A2 =C |"G7" B,3 |"Cmaj7" A2 B, | C3/2 D/ _E/=F/ | %82
w: share|dear Blues-|sette|don't des-|pair.|Some blue|boy is long- ing|
w: |||||||
"Cm7" G2 _e |"F7" d2 c |"Bbmaj7" =F2 d | c2 _B |"Bbm7" =F2 _d |"Eb7" c2 _B |"Abmaj7" _E =F G | %89
w: just like|you to|find a|some one|to be|true to|one luck- y|
w: |||||||
 =A _B c |"Am7" d2 c |"D7" B2 A |"Bm7" e3- | e3- |"E7" e2 d |"E+7" c2 B |"Am7" d3- | d3- | %98
w: day love- ly|love will|come your|way.||* That|mag- ic|day||
w: |||||||||
"D7" d2 c | B F E |"G" G3- |"D9" G3- |"Bm7" G-"Am7" G-"Abmaj7" G |"Gmaj7" G z2 | z3 | %105
w: * may|just be to-|day.|||||
w: |||||||

